static/img/kroki/b3315b3bc3e3b5511c2ed925053fe968.svg

<?xml version="1.0" encoding="us-ascii" standalone="no"?><svg xmlns="http://www.w3.org/2000/svg" xmlns:xlink="http://www.w3.org/1999/xlink" contentStyleType="text/css" height="152px" preserveAspectRatio="none" style="width:447px;height:152px;" version="1.1" viewBox="0 0 447 152" width="447px" zoomAndPan="magnify"><defs/><g><!--class kubernetes_cluster--><g id="elem_kubernetes_cluster"><rect codeLine="22" fill="#3D176E" height="39.7891" id="kubernetes_cluster" rx="2.5" ry="2.5" style="stroke:#000D19;stroke-width:0.5;" width="201" x="123" y="7"/><ellipse cx="138" cy="26.8945" fill="#ADD1B2" rx="11" ry="11" style="stroke:#181818;stroke-width:1.0;"/><path d="M140.9688,32.5352 Q140.3906,32.832 139.75,32.9727 Q139.1094,33.1289 138.4063,33.1289 Q135.9063,33.1289 134.5781,31.4883 Q133.2656,29.832 133.2656,26.707 Q133.2656,23.582 134.5781,21.9258 Q135.9063,20.2695 138.4063,20.2695 Q139.1094,20.2695 139.75,20.4258 Q140.4063,20.582 140.9688,20.8789 L140.9688,23.5977 Q140.3438,23.0195 139.75,22.7539 Q139.1563,22.4727 138.5313,22.4727 Q137.1875,22.4727 136.5,23.5508 Q135.8125,24.6133 135.8125,26.707 Q135.8125,28.8008 136.5,29.8789 Q137.1875,30.9414 138.5313,30.9414 Q139.1563,30.9414 139.75,30.6758 Q140.3438,30.3945 140.9688,29.8164 L140.9688,32.5352 Z " fill="#000000"/><text fill="#D9B8FF" font-family="Helvetica" font-size="17" lengthAdjust="spacing" textLength="159" x="157" y="32.7798">kubernetes_cluster</text></g><!--class kubernetes_validating_webhook_configuration--><g id="elem_kubernetes_validating_webhook_configuration"><rect codeLine="24" fill="#3D176E" height="39.7891" id="kubernetes_validating_webhook_configuration" rx="2.5" ry="2.5" style="stroke:#000D19;stroke-width:0.5;" width="433" x="7" y="106.79"/><ellipse cx="22" cy="126.6845" fill="#ADD1B2" rx="11" ry="11" style="stroke:#181818;stroke-width:1.0;"/><path d="M24.9688,132.3252 Q24.3906,132.622 23.75,132.7627 Q23.1094,132.9189 22.4063,132.9189 Q19.9063,132.9189 18.5781,131.2783 Q17.2656,129.622 17.2656,126.497 Q17.2656,123.372 18.5781,121.7158 Q19.9063,120.0595 22.4063,120.0595 Q23.1094,120.0595 23.75,120.2158 Q24.4063,120.372 24.9688,120.6689 L24.9688,123.3877 Q24.3438,122.8095 23.75,122.5439 Q23.1563,122.2627 22.5313,122.2627 Q21.1875,122.2627 20.5,123.3408 Q19.8125,124.4033 19.8125,126.497 Q19.8125,128.5908 20.5,129.6689 Q21.1875,130.7314 22.5313,130.7314 Q23.1563,130.7314 23.75,130.4658 Q24.3438,130.1845 24.9688,129.6064 L24.9688,132.3252 Z " fill="#000000"/><text fill="#D9B8FF" font-family="Helvetica" font-size="17" lengthAdjust="spacing" textLength="391" x="41" y="132.5698">kubernetes_validating_webhook_configuration</text></g><!--link kubernetes_cluster to kubernetes_validating_webhook_configuration--><g id="link_kubernetes_cluster_kubernetes_validating_webhook_configuration"><path codeLine="26" d="M223.5,47.22 C223.5,62.49 223.5,83.92 223.5,100.53 " fill="none" id="kubernetes_cluster-to-kubernetes_validating_webhook_configuration" style="stroke:#1A83AF;stroke-width:2.0;"/><polygon fill="#1A83AF" points="223.5,105.41,227.5,96.41,223.5,100.41,219.5,96.41,223.5,105.41" style="stroke:#1A83AF;stroke-width:2.0;"/></g><!--SRC=[bP9FIyD04CNlVeg5dWkDHTjUX5WeUYbYlOcKINQsMPBibDb9InM_kqchiYRzWzTvltdpPfZCQbHOhcMdIYmJP7_bS-lMm52gc9csKog8LSyOCCDHMvoHaul074fK3rXiK6mARU8bisdkq7jr7KZtaEOhfihfWxqmE5zBw2IWfWLu7ukmJIh188oU96DZscJRj3VKqUWMEnYnHlv61eE1ZYPjvEAeitl_4WlxZYeAZpOdmKxCpeWzTJPbGmGXEul-w2SpFe7MrgtKJL1xFcHYX_odliX0qxQX3HG-7EC56KbsQvnsjiB9M9lHKVZn59msbrDvLJ-gGq6_J8kgQLCVLvzTSGE5rI1riEKMaumeNwRaZ5rLN5V9xRkEcFLVUr4y7iQpj_xTV_o-0000]--></g></svg>

<svg xmlns="http://www.w3.org/2000/svg" width="447" height="152" preserveAspectRatio="none" style="width:447px;height:152px"><rect width="201" height="39.789" x="123" y="7" fill="#3D176E" rx="2.5" ry="2.5" style="stroke:#000d19;stroke-width:.5"/><circle cx="138" cy="26.895" r="11" fill="#ADD1B2" style="stroke:#181818;stroke-width:1"/><path d="M140.969 32.535q-.578.297-1.219.438-.64.156-1.344.156-2.5 0-3.828-1.64-1.312-1.657-1.312-4.782t1.312-4.781q1.328-1.656 3.828-1.656.703 0 1.344.156.656.156 1.219.453v2.719q-.625-.578-1.219-.844-.594-.281-1.219-.281-1.344 0-2.031 1.078-.688 1.062-.688 3.156 0 2.094.688 3.172.688 1.062 2.031 1.062.625 0 1.219-.265.594-.281 1.219-.86v2.72Z"/><text x="157" y="32.78" fill="#D9B8FF" font-family="Helvetica" font-size="17" textLength="159">kubernetes_cluster</text><rect width="433" height="39.789" x="7" y="106.79" fill="#3D176E" rx="2.5" ry="2.5" style="stroke:#000d19;stroke-width:.5"/><circle cx="22" cy="126.684" r="11" fill="#ADD1B2" style="stroke:#181818;stroke-width:1"/><path d="M24.969 132.325q-.578.297-1.219.438-.64.156-1.344.156-2.5 0-3.828-1.64-1.312-1.657-1.312-4.782t1.312-4.781q1.328-1.656 3.828-1.656.703 0 1.344.156.656.156 1.219.453v2.719q-.625-.579-1.219-.844-.594-.281-1.219-.281-1.343 0-2.031 1.078-.688 1.062-.688 3.156 0 2.094.688 3.172.688 1.062 2.031 1.062.625 0 1.219-.265.594-.281 1.219-.86v2.72Z"/><text x="41" y="132.57" fill="#D9B8FF" font-family="Helvetica" font-size="17" textLength="391">kubernetes_validating_webhook_configuration</text><path fill="none" d="M223.5 47.22v53.31" style="stroke:#1a83af;stroke-width:2"/><path fill="#1A83AF" d="m223.5 105.41 4-9-4 4-4-4 4 9z" style="stroke:#1a83af;stroke-width:2"/></svg>
